svg/icon/exp.svg

<svg height="32" viewBox="0 0 32 32" width="32" xmlns="http://www.w3.org/2000/svg" xmlns:xlink="http://www.w3.org/1999/xlink"><defs><linearGradient id="a" x1="50%" x2="50%" y1="0%" y2="100%"><stop offset="0" stop-color="#fff" stop-opacity=".5"/><stop offset="1" stop-opacity=".5"/></linearGradient><circle id="b" cx="16" cy="15" r="15"/><filter id="c" height="111.7%" width="111.7%" x="-5.8%" y="-4.2%"><feOffset dy=".5" in="SourceAlpha" result="shadowOffsetOuter1"/><feGaussianBlur in="shadowOffsetOuter1" result="shadowBlurOuter1" stdDeviation=".5"/><feComposite in="shadowBlurOuter1" in2="SourceAlpha" operator="out" result="shadowBlurOuter1"/><feColorMatrix in="shadowBlurOuter1" values="0 0 0 0 0   0 0 0 0 0   0 0 0 0 0  0 0 0 0.199473505 0"/></filter><path id="d" d="m7.5 10.669873 4.2979234 2.4814072c-.254704.5755213-.3962841 1.2130111-.3962841 1.8838075 0 .6490771.1325603 1.2669695.3719001 1.8277102l-4.2735394 2.4673291zm.57040821-.82537523 7.42959179-4.53902821v5.12510304c-1.3109934.1427838-2.4567721.8405598-3.201012 1.8552969zm16.42959179 9.48562923-4.2735394-2.4673291c.2393398-.5607407.3719001-1.1786331.3719001-1.8277102 0-.6707964-.1415801-1.3082862-.3962841-1.8838075l4.2979234-2.4814072zm-.45867.8898873-7.54133 4.4827721v-5.0631836c1.3322046-.1450939 2.4938051-.8632844 3.2368199-1.9047985zm-16.08266005 0 4.30451015-2.48521c.7430148 1.0415141 1.9046153 1.7597046 3.2368199 1.9047985v5.0631836zm15.97092185-10.37551653-4.2285798 2.44137173c-.7442399-1.0147371-1.8900186-1.7125131-3.201012-1.8552969v-5.12510304z"/><filter id="e" height="118%" width="120.6%" x="-10.3%" y="-6.4%"><feOffset dy=".5" in="SourceAlpha" result="shadowOffsetOuter1"/><feGaussianBlur in="shadowOffsetOuter1" result="shadowBlurOuter1" stdDeviation=".5"/><feColorMatrix in="shadowBlurOuter1" values="0 0 0 0 0   0 0 0 0 0   0 0 0 0 0  0 0 0 0.204257246 0"/></filter></defs><g fill="none" fill-rule="evenodd"><use fill="#000" filter="url(#c)" xlink:href="#b"/><use fill="#ffaa5c" xlink:href="#b"/><use fill="url(#a)" xlink:href="#b"/><circle cx="16" cy="15" r="14.5" stroke="#000" stroke-opacity=".097"/><use fill="#000" filter="url(#e)" xlink:href="#d"/><use fill="#fff" xlink:href="#d"/></g></svg>

<svg height="32" width="32" xmlns="http://www.w3.org/2000/svg" xmlns:xlink="http://www.w3.org/1999/xlink"><defs><linearGradient id="c" x1="50%" x2="50%" y1="0%" y2="100%"><stop offset="0" stop-color="#fff" stop-opacity=".5"/><stop offset="1" stop-opacity=".5"/></linearGradient><circle id="b" cx="16" cy="15" r="15"/><filter id="a" height="111.7%" width="111.7%" x="-5.8%" y="-4.2%"><feOffset dy=".5" in="SourceAlpha" result="shadowOffsetOuter1"/><feGaussianBlur in="shadowOffsetOuter1" result="shadowBlurOuter1" stdDeviation=".5"/><feComposite in="shadowBlurOuter1" in2="SourceAlpha" operator="out" result="shadowBlurOuter1"/><feColorMatrix in="shadowBlurOuter1" values="0 0 0 0 0 0 0 0 0 0 0 0 0 0 0 0 0 0 0.199473505 0"/></filter><path id="e" d="M7.5 10.67l4.298 2.481a4.644 4.644 0 0 0-.396 1.884c0 .65.132 1.267.372 1.828L7.5 19.33zm.57-.826l7.43-4.539v5.126a4.588 4.588 0 0 0-3.201 1.855zM24.5 19.33l-4.274-2.467c.24-.56.372-1.179.372-1.828 0-.67-.141-1.308-.396-1.884L24.5 10.67zm-.459.89L16.5 24.703V19.64a4.589 4.589 0 0 0 3.237-1.905zm-16.082 0l4.304-2.485A4.589 4.589 0 0 0 15.5 19.64v5.063zm15.97-10.376l-4.228 2.442A4.588 4.588 0 0 0 16.5 10.43V5.305z"/><filter id="d" height="118%" width="120.6%" x="-10.3%" y="-6.4%"><feOffset dy=".5" in="SourceAlpha" result="shadowOffsetOuter1"/><feGaussianBlur in="shadowOffsetOuter1" result="shadowBlurOuter1" stdDeviation=".5"/><feColorMatrix in="shadowBlurOuter1" values="0 0 0 0 0 0 0 0 0 0 0 0 0 0 0 0 0 0 0.204257246 0"/></filter></defs><g fill="none" fill-rule="evenodd"><use fill="#000" filter="url(#a)" xlink:href="#b"/><use fill="#ffaa5c" xlink:href="#b"/><use fill="url(#c)" xlink:href="#b"/><circle cx="16" cy="15" r="14.5" stroke="#000" stroke-opacity=".097"/><use fill="#000" filter="url(#d)" xlink:href="#e"/><use fill="#fff" xlink:href="#e"/></g></svg>
